packages/admin/admin-icons/icons/video.svg

<svg xmlns="http://www.w3.org/2000/svg" width="16" height="16" viewBox="0 0 16 16"><path fill="#242424" fill-rule="evenodd" d="M11,2.5 C11.2454599,2.5 11.4496084,2.67687516 11.4919443,2.91012437 L11.5,3 L11.5,5.149 L15.2571785,3.06292136 C15.5648083,2.89201593 15.9374428,3.08420488 15.9929509,3.41464095 L16,3.5 L16,12.5 C16,12.8519158 15.6510293,13.0843218 15.3352191,12.9723706 L15.2571785,12.9370786 L10.7571785,10.4370786 C10.5157867,10.302972 10.4288148,9.9985704 10.5629214,9.75717853 C10.6821272,9.54260799 10.9358872,9.45004828 11.1603438,9.52631582 L11.2428215,9.56292136 L15,11.65 L15,4.349 L11.2428215,6.43707864 C10.9351917,6.60798407 10.5625572,6.41579512 10.5070491,6.08535905 L10.5,6 L10.5,3.5 L1,3.5 L1,12.5 L11,12.5 C11.2454599,12.5 11.4496084,12.6768752 11.4919443,12.9101244 L11.5,13 C11.5,13.2454599 11.3231248,13.4496084 11.0898756,13.4919443 L11,13.5 L0.5,13.5 C0.254540111,13.5 0.0503916296,13.3231248 0.00805566941,13.0898756 L0,13 L0,3 C0,2.75454011 0.176875161,2.55039163 0.410124368,2.50805567 L0.5,2.5 L11,2.5 Z"/></svg>

<svg width="16" height="16" fill="none" viewBox="0 0 16 16">
  <path fill="#242424" fill-rule="evenodd" d="M11 2.501a.5.5 0 0 1 .492.41l.008.09V5.15l3.757-2.086a.5.5 0 0 1 .736.352L16 3.5v9a.5.5 0 0 1-.665.472l-.078-.035-4.5-2.5a.5.5 0 0 1 .403-.91l.083.036L15 11.65v-7.3l-3.757 2.088a.5.5 0 0 1-.736-.352l-.007-.085v-2.5H1v9h10a.5.5 0 0 1 .492.41l.008.09a.5.5 0 0 1-.41.492L11 13.5H.5a.5.5 0 0 1-.492-.41L0 13V3a.5.5 0 0 1 .41-.492L.5 2.5H11Z" clip-rule="evenodd"/>
</svg>
